modules/hawcons-stroke/icons/trophy.svg

<?xml version="1.0" encoding="UTF-8" standalone="no"?>
<svg width="32px" height="32px" viewBox="0 0 32 32" version="1.1" xmlns="http://www.w3.org/2000/svg" xmlns:xlink="http://www.w3.org/1999/xlink" xmlns:sketch="http://www.bohemiancoding.com/sketch/ns">
    <!-- Generator: Sketch 3.0.3 (7891) - http://www.bohemiancoding.com/sketch -->
    <title>icon 15 trophy</title>
    <desc>Created with Sketch.</desc>
    <defs></defs>
    <g id="Page-1" stroke="none" stroke-width="1" fill="none" fill-rule="evenodd" sketch:type="MSPage">
        <g id="icon-15-trophy" sketch:type="MSArtboardGroup" fill="#929292">
            <path d="M21,25 L21,22 L17,22 L17,17.9999979 L17,17.9999977 C20.3142002,17.9971381 23,15.3165338 23,12.0069348 L23,12 C26.5,10.5 27,3 27,3 L23,3 L22.5080872,3 L10,3 L6,3 C6,3 6.5,10.5 10,12 L10,12.0069348 C10,15.3150447 12.6907305,17.9971322 16,17.9999977 L16,22 L16,22 L12,22 L12,25 L9,25 L9,29 L24,29 L24,25 L21,25 L21,25 Z M11,4 L11,11.9924559 C11,14.7580461 13.2392729,17 16.0010987,17 L16.9989013,17 C19.7609319,17 22,14.7652203 22,11.9924559 L22,4 L11,4 L11,4 Z M10,4 L10,10.8999939 C7.6541748,9.22064209 7.1000061,4 7.1000061,4 L10,4 L10,4 Z M22.9824219,4 L22.9824219,10.8803101 C25.3282471,9.20095825 25.8828125,4 25.8828125,4 L22.9824219,4 L22.9824219,4 Z M13,23 L13,25 L20,25 L20,23 L13,23 L13,23 Z M10,26 L10,28 L23,28 L23,26 L10,26 L10,26 Z" id="trophy" sketch:type="MSShapeGroup"></path>
        </g>
    </g>
</svg>

<svg width="32" height="32" viewBox="0 0 32 32" xmlns="http://www.w3.org/2000/svg"><path d="M21 25v-3h-4v-4c3.314-.003 6-2.683 6-5.993V12c3.5-1.5 4-9 4-9H6s.5 7.5 4 9v.007c0 3.308 2.69 5.99 6 5.993v4h-4v3H9v4h15v-4h-3zM11 4v7.992A5.004 5.004 0 0 0 16.001 17H17A5 5 0 0 0 22 11.992V4H11zm-1 0v6.9C7.654 9.22 7.1 4 7.1 4H10zm12.982 0v6.88c2.346-1.679 2.9-6.88 2.9-6.88h-2.9zM13 23v2h7v-2h-7zm-3 3v2h13v-2H10z" fill="#929292" fill-rule="evenodd"/></svg>
